src/pos-icons/ubisoft.svg

<svg height="24" viewBox="0 0 24 24" width="24" xmlns="http://www.w3.org/2000/svg"><path d="m11.41 2c-6.2 0-8.88 5.53-8.88 5.53l.79.56s-.99 1.91-.97 4.31c0 4.94 3.94 9.6 9.72 9.6 5.26 0 9.6-4.29 9.6-9.59 0-6.91-5.36-10.41-10.26-10.41m.06 1.69c4.84 0 8.6 3.91 8.6 8.45 0 4.81-3.62 8.16-7.84 8.16-3.1 0-5.9-2.36-5.9-5.6 0-1.88.99-3.2 2.11-3.88l.16.18c-.3.24-1.17 1.64-1.17 3 0 2.56 2 4.33 4.52 4.33 3.21 0 5.35-2.74 5.35-5.92 0-3.7-3.27-6.84-7.2-6.84-2.17 0-4.01.93-5.07 1.76l-.17-.15c1.39-2.14 3.79-3.49 6.61-3.49m-1.47 3.54c2.53 0 4.97 1.66 5.59 4.02l-.23.08c-1.09-1.45-2.89-2.65-5.01-2.65-3.91 0-5.96 3.55-5.66 6.51l-.23.09s-.43-.95-.43-2.08c0-3.27 2.68-5.97 5.97-5.97m1.68 4.1c1.18 0 2.13.97 2.13 2.11 0 .94-.6 1.5-.6 1.5l.71.51s-.71 1.12-2.16 1.12c-1.39 0-2.63-1.13-2.63-2.64 0-1.55 1.34-2.6 2.55-2.6z"/></svg>

<?xml version="1.0" encoding="UTF-8"?><!DOCTYPE svg PUBLIC "-//W3C//DTD SVG 1.1//EN" "http://www.w3.org/Graphics/SVG/1.1/DTD/svg11.dtd"><svg xmlns="http://www.w3.org/2000/svg" xmlns:xlink="http://www.w3.org/1999/xlink" version="1.1" id="mdi-ubisoft" width="24" height="24" viewBox="0 0 24 24"><path d="M11.41,2C5.21,2 2.53,7.53 2.53,7.53L3.32,8.09C3.32,8.09 2.33,10 2.35,12.4C2.35,17.34 6.29,22 12.07,22C17.33,22 21.67,17.71 21.67,12.41C21.67,5.5 16.31,2 11.41,2M11.47,3.69C16.31,3.69 20.07,7.6 20.07,12.14C20.07,16.95 16.45,20.3 12.23,20.3C9.13,20.3 6.33,17.94 6.33,14.7C6.33,12.82 7.32,11.5 8.44,10.82L8.6,11C8.3,11.24 7.43,12.64 7.43,14C7.43,16.56 9.43,18.33 11.95,18.33C15.16,18.33 17.3,15.59 17.3,12.41C17.3,8.71 14.03,5.57 10.1,5.57C7.93,5.57 6.09,6.5 5.03,7.33L4.86,7.18C6.25,5.04 8.65,3.69 11.47,3.69M10,7.23C12.53,7.23 14.97,8.89 15.59,11.25L15.36,11.33C14.27,9.88 12.47,8.68 10.35,8.68C6.44,8.68 4.39,12.23 4.69,15.19L4.46,15.28C4.46,15.28 4.03,14.33 4.03,13.2C4.03,9.93 6.71,7.23 10,7.23M11.68,11.33C12.86,11.33 13.81,12.3 13.81,13.44C13.81,14.38 13.21,14.94 13.21,14.94L13.92,15.45C13.92,15.45 13.21,16.57 11.76,16.57C10.37,16.57 9.13,15.44 9.13,13.93C9.13,12.38 10.47,11.33 11.68,11.33Z" /></svg>
